!!!OTL: ES STOT EIN LIND IM HIMMELREICH
!!!ARE: Europa, Mitteleuropa, Deutschland
!!!SCT: E0067A
!!!YEM: Copyright 1995, estate of Helmut Schaffrath.
**kern
*ICvox
*Ivox
*M4/4
*k[]
*C:
{4c
=1
4e
4g
4g
4a
=2
4cc
8b
8g
8a
8g
4a
=3
2g
4r}
{4g
=4
4a
4cc
4.b
8a
=5
4.g
8f
4e}
{4g
=6
4g
4e
4d
4c
=7
2c
4r}
{4c
=8
4e
4g
4g
4a
=9
4cc
8b
8g
8a
8g
4a
=10
2g
4r}
{4g
=11
4a
4cc
4.b
8a
=12
4.g
8f
4e}
{4g
=13
4g
4e
4d
4c
=14
2c
4r}
==
!!!AGN: erzaehlendes Volks - Lied, Sage, Liebe, Ballade ?
!!!ONB: ESAC (Essen Associative Code) Database: ERK1
!!!AMT: simple quadruple
!!!AIN: vox
!!!EED: Helmut Schaffrath
!!!EEV: 1.0
*-
